!!!OTL: Ic sie die morghen sterre
!!!ARE: Europa, Mitteleuropa, Deutschland
!!!SCT: L0035B
!!!YEM: Copyright 1995, estate of Helmut Schaffrath.
**kern
*ICvox
*Ivox
*M4/2
*k[b-]
*d:
{2d
=1
2fn
2g
2a
2dd
=2
2ccn
2b
2a}
{2g
=3
2a
2a
2ccn
2a
=4
4a
4g
2fn
2r}
{2fn
=5
2e
2e
4a
4g
2e
=6
1d
2cn}
{6fn
6g
6a
=7
2ccn
2ccn
4a
4g
2a
=8
4fn
4e
2d
2r}
==
!!!AGN: Lied
!!!ONB: ESAC (Essen Associative Code) Database: ERK5
!!!AMT: simple quadruple
!!!AIN: vox
!!!EED: Helmut Schaffrath
!!!EEV: 1.0
*-
